dist/whatsapp--icon.2e716d28.svg

<svg width="15" height="15" viewBox="0 0 15 15" fill="none" xmlns="http://www.w3.org/2000/svg">
<path d="M7.50187 0H7.49813C3.36281 0 0 3.36375 0 7.5C0 9.14062 0.52875 10.6613 1.42781 11.8959L0.493125 14.6822L3.37594 13.7606C4.56187 14.5463 5.97656 15 7.50187 15C11.6372 15 15 11.6353 15 7.5C15 3.36469 11.6372 0 7.50187 0ZM11.8659 10.5909C11.685 11.1019 10.9669 11.5256 10.3941 11.6494C10.0022 11.7328 9.49031 11.7994 7.76719 11.085C5.56312 10.1719 4.14375 7.93219 4.03312 7.78687C3.92719 7.64156 3.1425 6.60094 3.1425 5.52469C3.1425 4.44844 3.68906 3.92438 3.90938 3.69938C4.09031 3.51469 4.38937 3.43031 4.67625 3.43031C4.76906 3.43031 4.8525 3.435 4.9275 3.43875C5.14781 3.44812 5.25844 3.46125 5.40375 3.80906C5.58469 4.245 6.02531 5.32125 6.07781 5.43188C6.13125 5.5425 6.18469 5.6925 6.10969 5.83781C6.03938 5.98781 5.9775 6.05437 5.86687 6.18187C5.75625 6.30937 5.65125 6.40688 5.54062 6.54375C5.43937 6.66281 5.325 6.79031 5.4525 7.01063C5.58 7.22625 6.02063 7.94531 6.66937 8.52281C7.50656 9.26812 8.18531 9.50625 8.42812 9.6075C8.60906 9.6825 8.82469 9.66469 8.95687 9.52406C9.12469 9.34313 9.33187 9.04313 9.54281 8.74781C9.69281 8.53594 9.88219 8.50969 10.0809 8.58469C10.2834 8.655 11.355 9.18469 11.5753 9.29437C11.7956 9.405 11.9409 9.4575 11.9944 9.55031C12.0469 9.64313 12.0469 10.0791 11.8659 10.5909Z" fill="#2C4CBC"/>
</svg>

<svg xmlns="http://www.w3.org/2000/svg" width="15" height="15" fill="none" xmlns:v="https://vecta.io/nano"><path d="M7.502 0h-.004A7.51 7.51 0 0 0 0 7.5c0 1.641.529 3.161 1.428 4.396l-.935 2.786 2.883-.922C4.562 14.546 5.977 15 7.502 15A7.51 7.51 0 0 0 15 7.5 7.51 7.51 0 0 0 7.502 0zm4.364 10.591c-.181.511-.899.935-1.472 1.059-.392.083-.904.15-2.627-.564-2.204-.913-3.623-3.153-3.734-3.298s-.891-1.186-.891-2.262.547-1.6.767-1.825c.181-.185.48-.269.767-.269l.251.008c.22.009.331.022.476.37l.674 1.623c.053.111.107.261.032.406s-.132.217-.243.344-.216.225-.326.362c-.101.119-.216.247-.088.467s.568.935 1.217 1.512c.837.745 1.516.983 1.759 1.085.181.075.397.057.529-.083.168-.181.375-.481.586-.776.15-.212.339-.238.538-.163s1.274.6 1.494.71.366.163.419.256.053.529-.129 1.041z" fill="#2c4cbc"/></svg>
